/* XPM */
static char *dc816fd6c6084ed3ff439117bf9fa49aWfqxUWlzcVNi4ZgL[] = {
/* columns rows colors chars-per-pixel */
"64 64 2 1 ",
"  c #464646",
". c #B4B4B4",
/* pixels */
"................................................................",
"................................................................",
"....      .....  ...............................................",
"...       .....   ..............................................",
"...  ..........   ..............................................",
"...   .........   ..............................................",
"...      .....     .............................................",
"...      .....  .  .............................................",
"...    ......  ..  .............................................",
"...   .......       ............................................",
"...       ...       ............................................",
"....      ..  .....  ...........................................",
".....   ....  .....  ...........................................",
"............ ....... ...........................................",
"................................................................",
"................................................................",
"................................................................",
"................................................................",
"................................................................",
"................................................................",
"................................................................",
"................................................................",
"................................................................",
"................................................................",
"................................................................",
"................................................................",
"................................................................",
"................................................................",
"................................................................",
"................................................................",
"................................................................",
"................................................................",
"................................................................",
"................................................................",
"................................................................",
"................................................................",
"................................................................",
"................................................................",
"................................................................",
"................................................................",
"................................................................",
"................................................................",
"................................................................",
"................................................................",
"................................................................",
"................................................................",
"................................................................",
"................................................................",
"................................................................",
"................................................................",
"................................................................",
"................................................................",
"................................................................",
"................................................................",
"................................................................",
"................................................................",
"................................................................",
"................................................................",
"................................................................",
"................................................................",
"................................................................",
"................................................................",
"................................................................",
"................................................................"
};
