/* XPM */
static char *_24e8c0d23424dfddda4a2020bc0f599aLaUHFfC5kDy7Iyc[] = {
/* columns rows colors chars-per-pixel */
"64 64 6 1 ",
"  c #316641",
". c gray30",
"X c gray44",
"o c gray47",
"O c #DB565C",
"+ c #D49A6E",
/* pixels */
"ooo..o XXXooXXooo....oooooo.. .......ooooooo... ooooooooooo.oooo",
"..o.oo XXoooXoXooo.ooooooooo.  oooo..ooooooooo. ooooooooOOo.oooo",
"o....  XXXooXXXXo..o  oooooo    oooo...ooooooo.  ..oooooO ..oo  ",
"oooo  oXoooXXooX..OO oooooo  .o oooooo..oooooo.o o.......      o",
"ooo  .oXXXoXo...ooO  ooooo  o.o  oooooo.oooooo.o  ooo...ooo  ooo",
"ooo .oooooo.....oooo oooo  oo.oo oooooo..ooooo.o   oooo.oo  oooo",
"ooo ..ooooo.ooo..... ooo ooo..oo ooooooo.ooo...o o  ooo.oo ooooo",
"ooo o..oooo.ooooo    oo  o...ooo  ooooo....o.o   oo   ....  oooo",
"ooo oo......ooooo oo    o.....o    o....oo..   .....o ooo..   oo",
"oo   oo.ooooooooO ooo.....ooo.  oo    oooooo O..ooooo ooooo..  o",
"o  o  o.ooooooooOOooo..ooooo   .ooo..   ooo.OOooooooo oooooo.  .",
"o ooo  ..oooooooooooo.oooooo oo......oo ooo.ooooooooo oooooo    ",
"o oo.. o....ooooooooo.ooooo  ooooooo.oo  o..ooooooooo oooo.  oo ",
". ...o      ..oooooo..oooo  oooooooo.ooO o.ooooooooo  ooo.O ooo ",
". ooooo  oo  ...ooo..ooooo ooooooooo..oOOo..oooooo   ..oo.OOoo  ",
"  oooo  oooo oo.....ooooo  oooooooooo..oooo.ooooo  .oo....ooo  o",
" oooo  ooooo ooo......ooo oooo....oooo........oo     oooo...o oo",
" ooo  oooooo OO..oooo.ooo .....oo...o.    ooo..o ooo oooooo.. oo",
"ooo  ....oo.  Ooooooo....  oooooooo..  oo Oooo.. ooo  oooooo. Oo",
"ooo .ooo..o.oooooooooo..oo ooooooooo. oooOOooooO oooo oooooooOOo",
"ooo .oooo.....     oooo..o  ooooooooo oooooooooOOoooo ooooooo..o",
"o.. oooooooooo .oO ooooo...  ooooooo ..ooooooooo..ooo ooooo.....",
"..o    oooooo  ..OOooooooo..     oo  ......oooooo.ooo ooooo.oooo",
"ooo oo    oo  oo.oooooooooo..  o   ..ooooo.oooooo.ooo oooo..oooo",
"ooo  oooo    oo.........oooo..  oo.ooooooo..ooooo.oo  ooo..ooooo",
"..oo oooooooo...ooooooo........ ...oooooooo.OO.....  oo..ooooooo",
"o..o ooooooo..ooo  oooooooo..oo ooooooooooo.O   oo  ....oooooooo",
"oO  .o.......ooooO  oooooooo..o ooooooooooo..oo     oo..oooooooo",
"oOOo...ooooo..oooOO  oooooooo.  ooooooooooo.ooooooo  oo..ooooooo",
"oo...oooooooo..ooooo     oooo  oooooooooooo.oooooooo  oo..oooooo",
"oo.ooooooooooo..ooo  ooo      ooooooooOOooo.ooooooooo      ooooo",
"o..ooooooooooo....  oooooo... .ooooooo Oooo.ooooooooooooo   oooo",
"o.oooooooooo...oo. ........ooO   oo    ooo..ooooooooooooo.o  ...",
"o.ooooooooo..ooooo Ooooo..oooOO.    ooo........ooooooooo..oo Ooo",
"o...........ooooooOOoooo.oooooooo.......oooooo..ooooooo..oooOOoo",
"oo.oooo.oooooooooooooooo..oooooooooooo.oooooooo.........oooooooo",
"oo..ooo..oooooooooooooooo..oooooooooo..oooooooooooo.oooooooooooo",
"ooo..ooo.ooooooooooooooooo..ooooooooo.ooooooooooooo.oooooooooooo",
"oo....oo.oooooooooooooooooo.ooooooooo.oooooooooooo..oooooooooooo",
"...oo......oooooooooooooooo.ooooooooo.oooooooooooo.ooooooooooooo",
"oooooooooo....ooooooooooooo.....oooo...ooooooooooo.ooooooooooooo",
"ooooooooooooo.........oooo..ooo......o.ooooooooooo.oooooooooooo.",
"ooooooooooo...ooooooo...o..ooooooooooo..oooooooooo.ooooooooooo..",
"oooooooooo..ooooooooooo...ooooooooooooo..ooooooooo.o.......o...o",
"oooooooooo.ooooooooooooo.ooooooooooooooo..ooooooo....ooooo...ooo",
"ooooooooo..ooooooooooooo.oooooooooooooooo..oooooo.oooooooooooooo",
"..ooooooo.ooooooooooooo..ooooooooooooooooo....oo..oooooooooooooo",
"o....ooo...oooooooooooo.ooooooooooooooooo..oo....ooooooooooooooo",
"oooo.....o....oooooooo...ooooooooooo......oooooo....oooooooooooo",
"ooooooooooooo..ooooooo.o...oooooooo...ooooooooooooo....ooooooooo",
"oooooooooooooo.........ooo..........o..ooooooooooooooo....oooo..",
"oooooooooooooooo..ooooooooooo.oooooooo...ooooooooooo...oo......o",
"ooooooooooooooo..oooooooooooo.oooooooooo....oooooooo.ooooooooooo",
".oooo...........oooooooooooo..ooooooooooooo...ooooo..ooooooooooo",
"......oo.ooooooooooooooooooo.ooooooooooooooo...oo...oooooooooooo",
"oooooooo....oooooooooooo........oooooooooo...o....o..ooooooooooo",
"ooooooooooo..ooooooooooo.oooooo.oooooooooo.ooooooooo..oooooooooo",
"oooooooooooo.ooooooooooo.oooooo..oooooooo..oooooooooo..ooooooooo",
"oooooooooooo......oooo...ooooooo..........oooooooooooo..ooooooo.",
"oooooooooo...oooo......oooooooooo.ooooo...ooooooooooooo.........",
"oooooooo...oooooooo.ooooooooooooo.ooooooo...ooooooooo...oooo...o",
"+oooooo+.oooo++oooo..++oooooooooo.oooooo++o..oooo++oo.oooooooo.+",
"+++oo++++oo++++++oo++++++oooo++++.ooo+++++++...++++++.oooo++++++",
"++++++++++++++++++++++++++++++++++++++++++++++++++++++++++++++++"
};
