/* XPM */
static char *_4cae2d9d566403eeb991ef3087bd7cem51TwdkLMWVYCUtb[] = {
/* columns rows colors chars-per-pixel */
"64 64 2 1 ",
"  c #464646",
". c #B4B4B4",
/* pixels */
"................................................................",
"................................................................",
"................................................................",
"....  ..  ...    ...............................................",
"...    .  ..      ..............................................",
"...    .  ..   .  ..............................................",
"...       ..  ..  ..............................................",
"...  .    ..  .   ..............................................",
"...  .    ..      ..............................................",
"...  ..  ....    ...............................................",
"................................................................",
"................................................................",
"................................................................",
"................................................................",
"................................................................",
"................................................................",
"................................................................",
"................................................................",
"................................................................",
"................................................................",
"................................................................",
"................................................................",
"................................................................",
"................................................................",
"................................................................",
"................................................................",
"................................................................",
"................................................................",
"................................................................",
"................................................................",
"................................................................",
"................................................................",
"................................................................",
"................................................................",
"................................................................",
"................................................................",
"................................................................",
"................................................................",
"................................................................",
"................................................................",
"................................................................",
"................................................................",
"................................................................",
"................................................................",
"................................................................",
"................................................................",
"................................................................",
"................................................................",
"................................................................",
"................................................................",
"................................................................",
"................................................................",
"................................................................",
"................................................................",
"................................................................",
"................................................................",
"................................................................",
"................................................................",
"................................................................",
"................................................................",
"................................................................",
"................................................................",
"................................................................",
"................................................................"
};
