/* XPM */
static char *_5996a4ee9584528f1ad56bf95467554dsdZSDxr6eVkLWz8[] = {
/* columns rows colors chars-per-pixel */
"64 64 6 1 ",
"  c #316641",
". c gray27",
"X c gray44",
"o c gray46",
"O c #DB565C",
"+ c #D49A6E",
/* pixels */
"ooo  oooooooo...ooooXooooo  ooooooo.ooooo oooo  ooo..ooooooOOooo",
"oooo oooooooooo.oXXoXoXXX  ooooooo.ooooo  oooo oooo.oooooooO ooo",
"oooo ooooooooo..oXXXXoXoX ooooooo..ooooo ooooo  oo..oooooooo ooo",
"oooo  oooooo  .ooXoXXoXoX ooooooo.oooooo oooooo oo.oooooooo  ooo",
"oooo         o.ooXooooXXX  oooooo.oooooo oooooo  o.oooooooo oooo",
"..o  oooooo  o..oooooooooo  oooo..ooo..  oooooo  ..ooo      Oooo",
".   oooooooo o...oooooooooo oooo......  ....ooo        ooooOOooo",
"  . ......oo  .o.oooooooooo  o...o.    oooo.... .  ..ooooooooooo",
" oo  oooo.... Oo...oooooo    ..oo   oooooooooo ooo  ..oooooooooo",
"oooo oooo.oooOOooo......  ..  oo  o..ooooooooo oooo  ...oooooooo",
"oooo  oo. oooooooooooooo o.oo    ooo.ooooooooo ooooo oo......ooo",
"oooo  ... oooooooooooooo ..oooo oooo.oooooooo  oooo. ooo.ooo....",
"oooo   o  oooooOOooooooo .ooooo oooo..oooo    oooo   ooooooooooo",
"ooo  .   ooooooO ooooooo .ooooo ooooo.ooo  oooooo  ooooooooooooo",
"oo  .ooooooooooo oooooo  .oooo  ooooo.... O.ooo.  .ooooooooooooo",
"oo ...ooooooooo  ooooo   .oooo  ooooo.oooOO..... .oooooooooooooo",
".. oo....oooo   oooooo o oooo  o o....oooooo..oo    oooooooooooo",
".o ooooo.....    .oooOO. ...  oo ..ooooooooo.ooo .oo  oooooooooo",
"oo  ooooooo.. oo ....Ooo oo  ...    oooooooo.ooo .oooo   oooooo.",
"ooo ooooooo.. oooooooooo oo ooooooo oooooooo.ooo ....ooo     ...",
"ooo  ooooooo. ooooooooo  oo  oooooo   ooooo..oooo  o.....O      ",
"  o    ooo    ooooooooo ooo. oooooo o  oooo.oooooo  oo.ooOOoooo ",
"    oo     o.ooooooooooooooO ..ooo  oo  ooo.ooooooo  ..oooooooO ",
"Oooooo ooo......oooooooooooOO...o  oooo ooo.oooooooo  ooooooooOO",
"oooooo o...oooo..ooooooooooo..o.  ....o   ......ooo.. oooooooooo",
"oooooo ..ooooooo...ooooooo...oo  oooo....     o...... oooooooooo",
"o.....  oooooooooo.........oooo ooooo.ooooooo oooooo.o ooooooooo",
"..oooo      oooooooo.oooooooooo ooooo.ooooooo ooooooo. ooooooooo",
"ooooo  o  o  oooooo..oooooooooo ooooo.ooooooO ooooooo. ooooooooo",
"ooooo ooo oo  oOOoo.oooooooooo   ooo..ooooooOOoooooo.. ..ooooooo",
"oooo oooo ooo   Oo..ooooooooo  o ooo.ooooooooooooo...o oo...oooo",
"ooo  ooo  oooooooo.ooooooo    oo  ...........ooo...ooO oooo...oo",
"ooO oooo oooooooo.....ooo  oooooo  ooooo..oo.....ooooOO  oooo...",
"ooOOoooo ooooooo..oooo..o oooooo.. oooooo.oooooooooooooo     .o.",
"oooooooo ooooooo.ooooOOo. .oooo..o  ooooo..oooooooooooo.....   o",
"..oooooo oooooo..ooooO    ......ooo oooooo.oooOOooooo..ooooooo O",
"o....oo  ooo....ooooo  oo..oooooooo  ooooo.oo  Oooooo.ooooooooOO",
"oooo..  ......ooooooooo..ooooooooooo oo....o  o  ......ooooooooo",
"ooooo  o ooo.....oooo...oooooooooooo o..oo.. ....ooooo.ooooooooo",
"ooooo oo  oo.ooo......o    oooooooo  ..ooooo oooooooo..ooooooooo",
"oooo  ooo  ..ooooooooo  ..   oooo      ooooo oooooooo.oooooooooo",
"ooooo oooo Ooooooooooo ooo..      ....   oo  oooooooo.oooooooooo",
"ooooo ooooOO.ooooooooo ooooo......oooo.O    oooooooo.....ooooooo",
"..oooooooo....oooooooo    oo.ooooooooooOOoooooooooo..ooo....oooo",
"o......ooo.oo...ooooOO oO oo.oooooooooo.ooooooooo...oooooooo....",
"oooooo.....oooo.....O  oOOoo.oooooooooo..oooooooo.ooooooooooooo.",
"ooooooo..ooooooooo..  oooooo.ooooooooooo.ooooooo..oooooooooooooo",
"ooooooooooooooooo..o.....ooo..oooooooooo.oooo....ooooooooooooooo",
"oooooooooooooooo..oooooo.........ooooooo......o..ooooooooooooooo",
"oooooooooooooooo.oooooo..ooooooo..oooooo.ooooooo....oooooooooooo",
"oooooooooooooooo.oooooo.ooooooooo........oooooooooo....ooooooooo",
"ooooooooooooooo..oooooo.ooooooooooooo.ooooooooooooooo...........",
"ooooooooo.......ooooooo.ooooooooooooo.oooooooooooooo..oooooooooo",
"oooooo.....ooooooooooo..ooooooooooooo.oooooooo.......ooooooooooo",
".oooo..ooo..oooooooooo.oooooooooooooo.ooo......ooooooooooooooooo",
"......ooooo..ooooooooo.oooooooooooooo.....oo...ooooooooooooooooo",
"..oooooooooo..oooooo.....ooooooooo.....ooooooo..oooooooooooooooo",
"..oooooooooooo..oooo.ooo...........oooooooooooo..ooooooooooooooo",
".oooooooooooooo......oooooooooo.oooooooooooooooo..oooooooooooooo",
"ooooooooooooooooo..oooooooooooo..oooooooooooooooo.....oooooooooo",
"oooooooooooooooooo.ooooooooooooo...ooooooooooooo..ooo......ooooo",
"oooooooo+ooooooooo.oooo++ooooooooo..oooooooooooo.oooo+oooo.oooo+",
".++oooo+++oooo++oo++oo+++++ooo+++oo.++ooooooo++..oo++++ooo...+++",
"++++++++++++++++++++++++++++++++++++++++++++++++++++++++++++++++"
};
