/* XPM */
static char *_9771b073b594f07a46fec7098a754caErFEcD5Hv8D6kG0s[] = {
/* columns rows colors chars-per-pixel */
"128 128 2 1 ",
"  c #ED1C24",
". c #B4B4B4",
/* pixels */
"................................................................................................................................",
"................................................................................................................................",
"................................................................................................................................",
"................................................................................................................................",
"................................................................................................................................",
".....     ......................................................................................................................",
".....     ......................................................................................................................",
".....      .....................................................................................................................",
".....       ....................................................................................................................",
"......        ..................................................................................................................",
".......        .................................................................................................................",
"........       .................................................................................................................",
".........       ................................................................................................................",
"...........      ............................          .........................................................................",
"...........       ........................                       ...............................................................",
"............       ...................                               ...........................................................",
".............       ..............                                      .......................    .............................",
"..............        .........                 ....                      .....................    .............................",
"...............        ......                .................              ..................     .............................",
"................        ...              .........................           .................     .............................",
".................                    ................................         ................     .............................",
"...................               .....................................        ...............     .............................",
"....................            .........................................      ...............     .............................",
"....................          ............................................      ..............     .............................",
"...................          ..............................................      .............     .............................",
".................             .............................................       ............     .............................",
"...............                .............................................      ............    ..............................",
"..............         ..        ............................................      ...........    ..............................",
"............          ....        ............................................     ...........    ..............................",
"...........         .......        ...........................................     ...........    ..............................",
"..........        ..........        ...........................................    ...........    ..............................",
".........        .............       ..........................................    ...........    ..............................",
".........      ................       ........................................     ...........    ..............................",
"........      ..................        ......................................     ..........     ..............................",
"........     ....................        ....................................      ..........     ..............................",
".......      .....................         ..................................     ...........     ..............................",
".......     .......................         ................................      ...........     ..............................",
".......     .........................         ..............................     ............     ..............................",
"......     ...........................         ............................      ............     ..............................",
"......     .............................         .........................      ............      ..............................",
"......     ..............................          .......................      ............      ..............................",
".....     .................................           ...................      .............      ..............................",
".....     ..................................             ..............       ..............      ..............................",
".....     ....................................                   ....         ..............      ..............................",
".....    .......................................                             ...............      ..............................",
".....    ..........................................                         ................      ..............................",
".....    .............................................                    .................       ..............................",
".....    .....................................................          ...................       ..............................",
".....    .................................................................................        ..............................",
".....    .................................................................................        ..............................",
".....    ................................................................................         ..............................",
".....    ................................................................................         ..............................",
".....    ...............................................................................          ..............................",
".....    ...............................................................................         ...............................",
".....    ..............................................................................          ...............................",
".....    ..............................................................................     .    ...............................",
".....     .............................................................................     .    ...............................",
".....     ............................................................................     ..    ...............................",
".....     ............................................................................     ..    ...............................",
"......     ...................            ...........................................      ..    ...............................",
"......     .................                  ......................................      ...    ...............................",
"......      ..............                        .................................       ...    ...............................",
".......     .........                               ...............................      ....    ...............................",
".......     .......              ......               ............................      .....    ...............................",
"........     ....              ............            ..........................      ......    ...............................",
"........      .              ..................        .........................       ......    ...............................",
"........                .........................      ........................       .......    ...............................",
".........             .............................    ........................      ........    ...............................",
".........           ...............................    .......................      .........    ...............................",
".........         .................................    ......................      ..........    ...............................",
".........          ................................    .....................       ..........    ...............................",
"........            ..............................     ....................       ...........    ...............................",
"........             ............................      ...................       ............    ...............................",
"........     .         ........................        ..................       .............    ...............................",
"........    ....             ................         .................        ..............    ...............................",
"........    .....                                    ................         ......                               .............",
"........    ......                                  ...............                                                 ............",
"........    ........                              .................                                                 ............",
"........    ..............                      ...................                                                 ............",
"........    .......................................................                    ......    ..............     ............",
"........    ................................................................................     ...............................",
"........    ................................................................................     ...............................",
"........    ................................................................................     ...............................",
"........    ................................................................................    ................................",
"........    ................................................................................    ................................",
"........     ...............................................................................    ................................",
"........     ...............................................................................    ................................",
"........      ..............................................................................    ................................",
".........     ..............................................................................    ................................",
".........      .............................................................................    ................................",
"..........      ...........................................................................     ................................",
"..........      ...........................................................................     ................................",
"...........      ..........................................................................     ................................",
"............      .........................................................................    .................................",
"............       ........................................................................    .................................",
".............        .....................................................................     .................................",
"..............         ...................................................................     .................................",
"...............            ...............................................................     .................................",
"................               ..........................................................     ..................................",
"..................                 ......................................................     ..................................",
"....................                    ................................................      ..................................",
"........................                      ..........................................     ...................................",
"............................                          ..................................     ...................................",
"................................                              ..........................    ....................................",
".....................................                             ......................    ....................................",
"...........................................                            ................     ....................................",
"...................................................                                         ....................................",
"...........................................................                                 ....................................",
"...............................................................                            .....................................",
"....................................................................                      ......................................",
"................................................................................................................................",
"................................................................................................................................",
"................................................................................................................................",
"................................................................................................................................",
"................................................................................................................................",
"................................................................................................................................",
"................................................................................................................................",
"................................................................................................................................",
"................................................................................................................................",
"................................................................................................................................",
"................................................................................................................................",
"................................................................................................................................",
"................................................................................................................................",
"................................................................................................................................",
"................................................................................................................................",
"................................................................................................................................",
"................................................................................................................................",
"................................................................................................................................"
};
