/* XPM */
static char *_2aadc3f84df42fbc39c6af5c9beb08es6ZTfWYQ5DfWOlS9[] = {
/* columns rows colors chars-per-pixel */
"64 64 2 1 ",
"  c #464646",
". c #B4B4B4",
/* pixels */
"................................................................",
".....    .......................................................",
"...       .....    .............................................",
"...   .   ...      .............................................",
"...  .... ..   ..   ............................................",
"...   ......  ....  ............................................",
"...     ....  ....  ............................................",
".....     ..  ....  ............................................",
"......    ..  ....  ............................................",
"........  ..  ....  ............................................",
"...  .    ...  ...  ............................................",
"...       ...   .  .............................................",
"....     .....    ..............................................",
"................................................................",
"................................................................",
"................................................................",
"................................................................",
"................................................................",
"................................................................",
"................................................................",
"................................................................",
"................................................................",
"................................................................",
"................................................................",
"................................................................",
"................................................................",
"................................................................",
"................................................................",
"................................................................",
"................................................................",
"................................................................",
"................................................................",
"................................................................",
"................................................................",
"................................................................",
"................................................................",
"................................................................",
"................................................................",
"................................................................",
"................................................................",
"................................................................",
"................................................................",
"................................................................",
"................................................................",
"................................................................",
"................................................................",
"................................................................",
"................................................................",
"................................................................",
"................................................................",
"................................................................",
"................................................................",
"................................................................",
"................................................................",
"................................................................",
"................................................................",
"................................................................",
"................................................................",
"................................................................",
"................................................................",
"................................................................",
"................................................................",
"................................................................",
"................................................................"
};
