/* XPM */
static char *_bf6c4fda178496189b1e8ef3103784facADP78z65FVv6AK[] = {
/* columns rows colors chars-per-pixel */
"64 64 6 1 ",
"  c #316641",
". c gray30",
"X c gray44",
"o c gray46",
"O c #DB565C",
"+ c #D49A6E",
/* pixels */
"o....   ooo..ooooooooooooooo..o oooooooo.oooooooo ooooo.oooooooo",
"o.oooo  oooo..ooooooooooooo.... oooooooo..ooooooo oooo..oooooooo",
"..oooo ooooo.....ooo .......oo. oooooooo.......oo ooo..ooooooooo",
".ooooo ooooo.ooo..oO  oooooooo  .oooooo..XXooo..o .......     ..",
"ooooo   ooo..o  o..OO  ooooooo o..oooo..Xoooooo... ooooo  ...  o",
"ooooo o  ...ooo  o..oo  ooooo  ........oXXoXXXo.oo  ooo  ooooo O",
"ooooo o.    oooo oo..oo   o   ooooooo..ooXoXoXo.oo      ooooooOO",
"ooooo ..ooo  oo  ooo.oooo   .  ooooooo.XXXoXXXo.ooo o   oooooooo",
"oo...  ooooo    oooo.oooooo.oo ooooooo.O    XX...oo ooo ooooo...",
"oo.o    oooooo   ooo........oo    oooooOO..   .o..  ..o  oo...oo",
"...  oo  oo..... ....oooooo.ooo o  ooooo..ooo      oo... ...oooo",
".oo oooo  o.oooo  ooooooooo.oo  oo ooooo.oooooooooooooo. ooooooo",
"oo  ooooo ..ooooo ooooooooo.oo ooo oooo..ooooooooooooo.. ooooooo",
"o  ooooo  .oooooo ooooOO oo..  ooo oooo.ooooooooooooo..o      oo",
"o ooooo  o.oooooo ooooO  ...O oooo     ....oooooooooo.o  oooo  o",
"  oooo  oo.oooooo  oo.. ooooOOoo.  ooo   o...oooooooo   oooooo o",
" oooo     ....oooo   .  ooooo.... oooooo ooo........  ...ooooO o",
"ooooo ..o  oo..oo...      oooo..o ooooooooooo..oooo  ooo..oooOOo",
"ooooo oooo  oo....ooooooo  oooo.. oooooOOooooo.ooo  ooooo...oooo",
"..... ooooo  ooo.ooooooooo OOooo. oooooO ooooo..o   ooooooo....o",
".ooo.  ooooo  oo.ooooooooo  Ooo..  ooooo oooooo.o o   oo....oo.o",
"oooo.. oooooo oo.ooooooooo oooo.oo  oooo   oooo.  ooo  ..ooooo..",
"ooooo. oooooo  o.ooooo     oooo.oo   ooooo oooo  ooooo   oooooo.",
"oooooo .ooooo  o..OO...oo oooo..oo o Ooooo   o   ooooo.o    Oooo",
"ooooo  ...o.. ...oO oo..o ooo....  oOOoooo..   . ...oo.ooooOOooo",
".oooo oo....o ooooo ooo.. ....ooo ..oooo...o  oo oo.oo.ooooooooo",
".ooo  o..ooO  ooooo ooo.o  ooooo  o..o...oo  ooo oo....ooooooooo",
".... ...oooOO ooooo ooo.oo ooooo ooo...oooo oooo ooo.ooooooooooo",
"oooo  .oooooo   o   oo..oo  Oooo oooo..ooo  oooo  oo.ooooooooooo",
"ooooo  ..oooooo   oo...ooooOOooo ooooo.ooo  ooooo   .ooooo...OO.",
"oooooo  ..ooooooooo..oooooooooo..........    oooooo    oo..o  Oo",
"ooooooo o...oooooo..oooooooooo..oooooooo  oo oooo.....  ..   ooo",
"ooooooo ooo...............ooo..oooooooo  ..o  oo..ooooo    ooooo",
"ooooooo oo..ooooooooooooo.....oooooooo  oo...  ..ooooooooooooooo",
"ooooooo o..oooooooooooooooo..ooooooO   oooooo. ooooooooooooooooo",
"ooooooo o.ooooooooooooooooo..ooooooOOooooooooo Ooooooooooooooooo",
"....OO  ..oooooooooooooooooo.oooooooooooooooooOOoooooooooooooooo",
".oooO  o..oooooooooooooooooo..ooooooooooooooooo..ooooooooooooooo",
"ooooooooo..oooooooooooooooooo..ooooooooooooooooo.ooooooooooooooo",
"oooooooooo..oooooooooooooooooo.oo....ooooooooooo.ooooooooooooooo",
"ooooooooooo..oooooooooooooooo.....oo...ooooooooo.........ooooooo",
"oooooooooooo.oooo....ooooo....oooooooo..ooooo....ooooooo..oo....",
"oooooooooooo..o...oo.......oooooooooooo...oo..ooooooooooo.o..ooo",
"oooooooooo......oooooooo..ooooooooooooooo.......ooooooooo...oooo",
"ooooooooo..oooooooooooooo..oooooooooooooooooooo...oooooooo.ooooo",
".oo.......oooooooooooooooo...oooooooooooooooooooo.oooooooo.ooooo",
"....ooooo.oooooooooooooooooo..ooooooooooooooooooo..ooooooo.ooooo",
"ooooooooo.ooooooooooooooo........ooooooooooooo.......oooo..ooooo",
"ooooooooo.oooooooooooooo..oooooo.......oo......ooooo......oooooo",
"ooooooooo..ooooooooooooo.ooooooooooooo....oooooooooooo...ooooooo",
"oooooooooo..ooooooooooo..ooooooooooooo..oooooooooooooooo..oooooo",
"oooo..........ooooooooo.ooooooooooooo..oooooooooooooooooo.oooooo",
".oo..oooooooo..ooooooo..ooooooooooooo.ooooooooooooooooo.........",
"....oooooooooo..oooooo.oooooooooooooo.oooooooooooooooo..ooooooo.",
"oo..ooooooooooo.........ooooooooooooo.ooooooooooooooo..oooooooo.",
"ooo..oooooooooo.ooooooo..ooooo.....oo.ooooooooooooooo.oooooooooo",
"oooo..oooooooo..oooooooo....o..ooo........oooooooooo..oooooooooo",
"ooooo.....oo...oooooooooooo...ooooooooooo.ooooo......ooooooooooo",
"oooo..ooo....oooooooooooooooo.ooooooooooo..oo...oooo..oooooooooo",
".....oooooo..oooooooooooooooo.oooooooooooo....ooooooo.....oooooo",
"oooooooooooo..oooooooooooooo..ooooooooooooo..oooooooooooo.ooooo+",
"+ooooo++ooooo.oooooooo++oooo.ooo+oo++ooooooo..oooo++ooooo.+ooo++",
"++o++++++oooo.++++oo+++++ooo.o+++++++++oooo+++.o+++++ooo++++++++",
"++++++++++++++++++++++++++++++++++++++++++++++++++++++++++++++++"
};
