/* XPM */
static char *d5c9cd0a5c7649b8b3d6f8e658c584836HUsk64g7UQI7QQB[] = {
/* columns rows colors chars-per-pixel */
"32 32 3 1 ",
"  c gray47",
". c #990030",
"X c #9C5A3C",
/* pixels */
"XXXXXXXXXX  XXXXXXXXXX  XXXXXXXX",
"X........X  X........X  X.......",
"X........X  X........X  X.......",
"X........X  X........X  X.......",
"XXXXXXXXXX  XXXXXXXXXX  XXXXXXXX",
"                                ",
"                                ",
"XXXXXX  XXXXXXXXXX  XXXXXXXXXX  ",
".....X  X........X  X........X  ",
".....X  X........X  X........X  ",
".....X  X........X  X........X  ",
"XXXXXX  XXXXXXXXXX  XXXXXXXXXX  ",
"                                ",
"                                ",
"XXX  XXXXXXXXXX  XXXXXXXXXX  XXX",
"..X  X........X  X........X  X..",
"..X  X........X  X........X  X..",
"..X  X........X  X........X  X..",
"XXX  XXXXXXXXXX  XXXXXXXXXX  XXX",
"                                ",
"                                ",
"XXXXXXX  XXXXXXXXXX  XXXXXXXXXX ",
"......X  X........X  X........X ",
"......X  X........X  X........X ",
"......X  X........X  X........X ",
"XXXXXXX  XXXXXXXXXX  XXXXXXXXXX ",
"                                ",
"                                ",
" XXXXXXXXXX  XXXXXXXXXX  XXXXXXX",
" X........X  X........X  X......",
" X........X  X........X  X......",
" X........X  X........X  X......"
};
