/* XPM */
static char *_df6c30602d848effdf12d00198ff11b87Lvt8lvRHIws6LS[] = {
/* columns rows colors chars-per-pixel */
"64 64 2 1 ",
"  c #464646",
". c #B4B4B4",
/* pixels */
"................................................................",
"... ............  ..............................................",
"...  ....  ...     .............................................",
"...  ....  ..   ................................................",
"...  ....  ..   ................................................",
"...  ....  ..   ................................................",
"...  .  .  ..      .............................................",
"...        ..      .............................................",
"...        ..   ................................................",
"...   ..   ..   ................................................",
".... .... ....     .............................................",
"..............    ..............................................",
"................................................................",
"................................................................",
"................................................................",
"................................................................",
"................................................................",
"................................................................",
"................................................................",
"................................................................",
"................................................................",
"................................................................",
"................................................................",
"................................................................",
"................................................................",
"................................................................",
"................................................................",
"................................................................",
"................................................................",
"................................................................",
"................................................................",
"................................................................",
"................................................................",
"................................................................",
"................................................................",
"................................................................",
"................................................................",
"................................................................",
"................................................................",
"................................................................",
"................................................................",
"................................................................",
"................................................................",
"................................................................",
"................................................................",
"................................................................",
"................................................................",
"................................................................",
"................................................................",
"................................................................",
"................................................................",
"................................................................",
"................................................................",
"................................................................",
"................................................................",
"................................................................",
"................................................................",
"................................................................",
"................................................................",
"................................................................",
"................................................................",
"................................................................",
"................................................................",
"................................................................"
};
