/* XPM */
static char *_ae0824e8ce64edafdcd0766bfe1ed36rYnYZ6oXAHRDvVtG[] = {
/* columns rows colors chars-per-pixel */
"64 64 6 1 ",
"  c #316641",
". c gray30",
"X c gray44",
"o c gray47",
"O c #DB565C",
"+ c #D49A6E",
/* pixels */
"..oooooooo.oooooo  ..oXoooXoXoXooooo...oooooooooooooo.. .ooooo..",
".ooo     o..oooooo .ooXXoXXoXXooooo..oooOOooooooooo...o ooooooo.",
".oo  ooo  o.oooooo  oooXXXooXoXoooo..oooO ooooooooo.ooo  ooooooo",
"oo  ooooo  ........  ooXoXooXXXooooo..oo  oooooooo..oooo  oooooo",
"oo oooooo.   ooooooo .ooooo....  oooo.oo ooooooooo.oooo    ooooo",
"oo ooooo..oo ooooooo ...o...oooO   ....o  oooooooo.ooo  oo  oooo",
"oo ooooo.ooo   ooooo oo...oooooOOo .oo..o   oo.....    oooo oooo",
"oo  ooo..ooooo    o  o...ooooooooo .ooo.... o..oo   ..ooooo oooo",
"... ....ooooooo     o..oooooooooo. oooooooo   oo  ooo..oooo ooo.",
".oo o..ooooooooo  ooo.ooooooooooo. ooooooooo.    ooooo..... o...",
"ooo  o...oooooooo ooo.ooooooooooo. ooooooooo.oo oooooooooo    oo",
"oooo oooOO...o... .....ooooooooo.  ooooooooo.oo ooooooooo  oo   ",
"oooo ooo Ooo...oo  ooo...oo   ..  oooooooooo.oo ooooooo   ooooo ",
"oooO oo  ooo..oooo ooooo    .    ..ooooooooo..o  ooooo  ..ooooo ",
"oooOOoo ooo..oooo        o..ooo  o.oooooooo..... .oooo ..oooooo ",
"ooooooo ooo.oooo  oooooooo.ooooo o....oo....oooo  .... .ooooooo ",
"oo...... oo.oo   ooooooooo.ooooo  ooo....oooooooO oo.. ..oooooo ",
"o..ooooo.      o  oooooooo.oooooo oooo.oooooooooOOoo.o o...ooo  ",
"..oooooooo  ..ooo oooooOO..oooooo oooo.ooooooooooooo.o ooo..oo o",
".oooooooo  oo..oo  ....O .ooooooo oooo.ooooooooooooo.  oooo..O  ",
"oo        oooo.o.  ooooo ..ooooo   ooo..ooooooooo       oooooOO.",
"o  ooooo ooooo...o ooooo o..oo   o ooo...ooooooo  o...o oooooooo",
"o oooooo ooooo..oo oooo  ....  ...  o..o..ooooo  ...o..  ooooooo",
"o oooooo oooo..ooo  o   ..oo  oooo. ..ooo...ooo .ooooo.o   ooooo",
" oooooo  oooo..oooo   ..oooo oooooo  oooooo..   oooooo..oo  oo..",
" oooooo o.....ooooo  o.oooo  ooooooo oooooooo .  oooooo..oo  ..o",
" O....o ..ooo...oooo o.oooo oooooooo ooooooo  .o ooooooo.oo. .oo",
"OOooo.. .oooooo..ooo  .oooo oooooooO oooooo  o.o  Oooooo....  oo",
"ooooooo  ooooooo..ooo ..ooo oooooooOOooooo  oo.ooOOooooo.oooo oo",
"ooooooo. oooooooo..oo o..oo ooooooo.oooooo oo..ooooooooo.oooo oo",
"ooooooo.  ....oooo..o  ...o ooooo.....ooo. ...oooooooooo.ooo  oo",
"oooooo..o  oo..oooo... oo.. ..o...ooo..... o...oooooo....ooo ooo",
"ooooo..ooo  oo..ooo.oo oooo  ....ooooooooo ooo.ooo ...oooo   ooo",
"oooo..ooooo   o.ooo.oo ooooo ooo.OOooooooo ooo....  o.ooo  ooooo",
"ooo..oooooooo  .....o  ooooo    . Oooooooo  ooo..oo  ..o  ooooo.",
"..o.oooooooo.. Oooo.o oooooooooo  ooooooooo ooo.oooO     oooo...",
"o......ooooo.oOOoooO  ooooooooooo..oooooooo ooo.oooOOoo.......oo",
"oooooo.ooooo.ooooooOO.oooooooooooo.oooooooo ooo.ooooooooooooo.oo",
"oooooo.oooo..oooooooo...ooooooo......oooooo  .....ooooooooooo.oo",
"oooooo..ooo.ooooooooooo..ooooo..oooo........ .ooo..oooooooooo.oo",
"ooooooo.ooo.oooooooooooo..oo...oooooooo..ooo  oooo.ooooooooo....",
"ooooooo.....ooooooooooooo....ooooooooooo.oooo  ooo..ooo......oo.",
"ooooo...oo...oooooooooooooo.oooooooooooo..oooo Oooo.....ooooooo.",
"oooo..oooooo..ooooooooooo...oooooooooooo..ooooOOoooo.ooooooooooo",
"oo...oooooooo..ooo.....oo.oooooooooooooo.ooooooooooo.ooooooooooo",
"o..oooooooo........ooo.....oooooooooo....oooooooooo..ooooooooooo",
"..oooooooo..oooooooooooooo..ooooooo...oo...ooooooo..oooooooooooo",
".ooooooooo.oooooooooooooooo..oo.....oooooo...oo....ooooooooooooo",
"oooooooooo..oooooooooooooooo....oo.ooooooooo....oo..ooooooooooo.",
"ooooooooooo..oooooooooooooooo.ooo..ooooooooooo..ooo..ooooooooo..",
"ooooooo.......oooooooooooooo..ooo.ooooooooooooo.oooo...ooooo...o",
"oooooo..ooooo..oooooooooooo..oooo.ooooooooooooo.oooooo.......ooo",
"oooooo.ooooooo..oooo.....oo.ooooo..ooooooooooo..oooooo..oooooooo",
"ooooo..oooooooo.ooo..ooo....oooooo..ooooooo....ooooooo.ooooooooo",
"o...o.ooooooooo.oo..ooooooooooooooo.oooooo..ooooooooo..ooooooooo",
"..o...ooooooooo....oooooooooooooooo....oo..oooooooooo..ooooooooo",
".oooo.oooooooooooo.oooooooooooooooo.oo....oooooooooooo.ooooooooo",
"ooooo..ooooooooooo.oooooooooooooo...ooooo...oooooooooo..oooooooo",
"oooooo..ooooooooo...ooooooooooo...ooooooooo..ooooooo.........ooo",
"ooooooo...oooooo..o.ooooooooooo.oooooooooooo.o.......oo..ooo..oo",
"ooooooooo....ooo.oo...........o.oooooooooooo...oooooooo.ooooo...",
".ooo+++ooooo+++..oooooo++o++o...oo+++ooooooo++oooooooo+++ooooooo",
"..++++++oo+++++++++++oo++++++o..++++++oooo+++++oo++++++++++++o++",
"++++++++++++++++++++++++++++++++++++++++++++++++++++++++++++++++"
};
